teeny/solid/arrow-down-small.svg

<svg width="15" height="15" viewBox="0 0 15 15" fill="none" xmlns="http://www.w3.org/2000/svg">
<path fill-rule="evenodd" clip-rule="evenodd" d="M8.00001 4L8.00001 9.29289L9.50001 7.79289L10.2071 8.5L7.50001 11.2071L4.79291 8.5L5.50001 7.79289L7.00001 9.29289L7.00001 4H8.00001Z" fill="black"/>
</svg>

<svg viewBox="0 0 15 15" xmlns="http://www.w3.org/2000/svg"><path fill-rule="evenodd" d="M8 4v5.29l1.5-1.5 .7.7 -2.71 2.7 -2.71-2.71 .7-.71 1.5 1.5v-5.3h1Z"/></svg>
